X: 20762
T: Johnny I Do Miss You
R: polka
M: 2/4
K: Gmajor
g>e|dB AG|B2 DB|c2 Bc|A2 Ag/e/|
dB AG|B2 DB|c2 BA|G2:|
G>A|Bd d>c|Bd d>c|Bd ef|g2 g>d|
Bd d>c|Bd g>a|ba ag|a2 a>c|
Bd d>c|Bd d>c|Bd ef|g2 g>e|
dB AG|B2 DB|c2 BA|G2||

